X:23
T:Pádraig O'Keeffe's
S:Denis Murphy
B:CRÉ V, No. 218, no name, in A.
N:This tune gets played untitled in the key of G.
Z:ATB
R:hornpipe
M:4/4
L:1/8
K:G
BA|:GEDE GABG|AGBG AGBA|GEDE GABc|(3ded(3cBA GA{c}BA|
GEDE GABG|AGBG AGBA|GEDE GABc|(3ded(3cBA G3c||
dgbg dgbg|dgbg agab|dgbg dgbg|agab g2g2|
dgbg dgbg|dgbg agd2|(3gfe(3fed edBc|(3ded(3cBA GA{c}BA|]
